icons/telescope-filled-24.svg

<svg width="24" height="25" viewBox="0 0 24 25" fill="none" xmlns="http://www.w3.org/2000/svg">
<path d="M17.0154 22.8997C17.3641 22.6762 17.4655 22.2123 17.2419 21.8636L13.2419 15.6247C13.0407 15.3109 12.6395 15.1925 12.3002 15.3467L9.55016 16.5967C9.4203 16.6558 9.30996 16.7506 9.2321 16.8701L5.98215 21.859C5.75606 22.2061 5.85414 22.6707 6.20121 22.8968C6.54828 23.1229 7.01292 23.0249 7.23901 22.6778L10.3697 17.8719L10.8802 17.6399V23.2795C10.8802 23.6937 11.216 24.0295 11.6302 24.0295C12.0444 24.0295 12.3802 23.6937 12.3802 23.2795V17.0598L15.9792 22.6731C16.2027 23.0218 16.6667 23.1233 17.0154 22.8997Z" fill="#24292E"/>
<path fill-rule="evenodd" clip-rule="evenodd" d="M0.268146 15.1592C-0.251532 14.2591 0.00485271 13.111 0.858067 12.5174L16.8989 1.35847C17.845 0.700292 19.1502 0.975892 19.7494 1.96039L22.5763 6.60469C23.1932 7.61815 22.7973 8.94274 21.7254 9.45143L3.96325 17.881C3.02169 18.3278 1.89481 17.9767 1.37371 17.0741L0.268146 15.1592ZM5.53202 11.0932L7.51827 14.5335L6.15873 15.1787L4.29629 11.9528L5.53202 11.0932ZM13.3737 5.63804L16.2303 10.399L17.5919 9.75278L14.6079 4.77949L13.3737 5.63804Z" fill="#24292E"/>
</svg>

<svg xmlns="http://www.w3.org/2000/svg" width="24" height="25" viewBox="0 0 24 25"><path d="M17.015 22.9a.75.75 0 00.227-1.036l-4-6.24a.75.75 0 00-.942-.277l-2.75 1.25a.75.75 0 00-.318.273l-3.25 4.989a.75.75 0 001.257.819l3.13-4.806.511-.232v5.64a.75.75 0 001.5 0v-6.22l3.6 5.613a.75.75 0 001.035.227z"/><path fill-rule="evenodd" d="M.268 15.16a2 2 0 01.59-2.643l16.04-11.159a2 2 0 012.851.602l2.827 4.645a2 2 0 01-.85 2.846l-17.763 8.43a2 2 0 01-2.59-.807L.269 15.16zm5.264-4.067l1.986 3.44-1.36.646-1.862-3.226 1.236-.86zm7.842-5.455l2.856 4.761 1.362-.646-2.984-4.974-1.234.859z"/></svg>
